X:18326
T:Viva Asturies (CT 096)
C:Tradicional
S:Música Tradicional Asturiana, (C) Tello & Tito. Asturies, 2001.
S:http://pagina.de/MusTradAst <telloytito@asturies.org>
N:Canción de empleo indeterminado, transcrita en Muriellos, ayuntamiento de Quirós.
N:La cantan, generalmente, las mujeres, acompañando los quehaceres domésticos o las faenas del campo.
O:Muriellos (Quirós)
A:Asturies
Z:Cancioneru de Torner 096
M:3/4
L:1/8
Q:1/4=92
W:Viva Asturias, viva Asturias
W:y también viva CAstilla;
W:tengo el amor castellano,
W:por eso quiero que viva.
K:C
|dd BG cd|e(e-e/d/4e/4d/c/4d/4) c2|cc cc Bc|dd-d2 z2|
dd BG cd|e(e-e/d/4e/4d/c/4d/4) cc|BA-A2 BB|(B3/2(A/4G/4A/4 G2) z2||


